!!!!SEGMENT: Wil2050-Ave_regina_celorum.krn
!!!id: Wil2050
!!!AGN: Motet
!!!SCT: Zenck (1950)
!!!voices: 4
!!!COM: Adrian Willaert
!!!OTL: Ave regina celorum
**kern	**kern	**kern	**kern
*part4	*part3	*part2	*part1
*staff4	*staff3	*staff2	*staff1
*I"Bassus	*I"Tenor	*I"Altus	*I"Superius
*I'B	*I'T	*I'A	*I'S
*clefF4	*clefGv2	*clefGv2	*clefG2
*k[b-]	*k[b-]	*k[b-]	*k[b-]
*F:	*F:	*F:	*F:
*M2/1	*M2/1	*M2/1	*M2/1
*met(C|)	*met(C|)	*met(C|)	*met(C|)
!!section: Prima pars: Ave regina celorum
!!!OMD: Prima pars: Ave regina celorum
=1	=1	=1	=1
1r	0F	0r	0r
[1F	.	.	.
=2	=2	=2	=2
2F]	0A	[0F	1r
2E	.	.	.
2D	.	.	[1f
2C	.	.	.
=3	=3	=3	=3
0BB-y	1.B-y	0F]	2f]
.	.	.	2e
.	.	.	1d
.	2A	.	.
=4	=4	=4	=4
0C	1G	1.c	0e
.	[1c	.	.
.	.	2B-y	.
=5	=5	=5	=5
1.F	2c]	2A	0c
.	2B-y	2G	.
.	[1A	[1F	.
2E	.	.	.
=6	=6	=6	=6
2D	1A]	2F]	1d
2C	.	2E	.
1BB-y	1B-y	1D	[1f
=7	=7	=7	=7
0C	0G	1C	2f]
.	.	.	4e
.	.	.	4d
.	.	[1c	1e
=8	=8	=8	=8
0FF	1.F	2c]	[0f
.	.	2B-y	.
.	.	2A	.
.	2E	2G	.
=9	=9	=9	=9
0BB-y	2.D	1F	0f_
.	4C	.	.
.	1D	[1B-y	.
=10	=10	=10	=10
[0FF	[0C	2B-]	0f_
.	.	4A	.
.	.	4G	.
.	.	1A	.
=11	=11	=11	=11
0FF]	0C]	0A	0f]
=12||	=12||	=12||	=12||
0r	1F	0r	0r
.	1G	.	.
=13	=13	=13	=13
0r	1A	0r	1r
.	1A	.	1c
=14	=14	=14	=14
0r	2r	0r	1d
.	2F	.	.
.	2G	.	1e
.	[2A	.	.
=15	=15	=15	=15
0r	4A]	0r	1e
.	4G	.	.
.	2E	.	.
.	2F	.	1d
.	2G	.	.
=16	=16	=16	=16
0r	2C	0r	2e
.	4F	.	1f
.	4G	.	.
.	4A	.	.
.	4B-y	.	.
.	[2c	.	2e
=17	=17	=17	=17
1r	2c]	0r	1d
.	2Bni	.	.
2r	2c	.	[1c
[2A	[2F	.	.
=18	=18	=18	=18
4A]	2F]	1F	0c]
4G	.	.	.
1F	4E	.	.
.	4D	.	.
.	1C	1G	.
2E	.	.	.
=19	=19	=19	=19
2F	1F	1A	0r
2.D	.	.	.
.	2r	1A	.
4C	.	.	.
2AA	[2F	.	.
=20	=20	=20	=20
2BB-y	4F]	1G	0r
.	4D	.	.
2C	2E	.	.
2FF	2F	2A	.
4BB-y	2D	[2B-y	.
4C	.	.	.
=21	=21	=21	=21
4D	1F	2B-]	1r
4E	.	.	.
2.F	.	2A	.
.	1C	1G	2r
4E	.	.	.
4E	.	.	[2c
8DL	.	.	.
8EJ	.	.	.
=22	=22	=22	=22
2F	2r	1F	2c]
2FF	2.F	.	4B-y
.	.	.	4A
1GG	.	1r	2B-y
.	8EL	.	.
.	8DJ	.	.
.	2E	.	2G
=23	=23	=23	=23
1FF	2F	2r	2A
.	2C	1A	2.c
2r	1D	.	.
.	.	.	4Bni
[2F	.	4G	4Bni
.	.	4F	8AL
.	.	.	8BniJ
=24	=24	=24	=24
2F]	1C	2.G	1c
4E	.	.	.
4D	.	4F	.
2E	1r	2G	1r
2C	.	[2A	.
=25	=25	=25	=25
2D	1r	2A]	0r
1F	.	4G	.
.	.	4F	.
.	2r	1G	.
2E	[2c	.	.
=26	=26	=26	=26
2.F	4c]	0F	2r
.	4B-y	.	.
.	4A	.	1f
4E	4G	.	.
2D	2A	.	.
2BB-y	2B-y	.	4e
.	.	.	4d
=27	=27	=27	=27
2C	2G	1c	2e
2.F	1A	.	2c
.	.	2.A	2d
4E	.	.	.
2D	4G	.	[2f
.	4F	4B-y	.
=28	=28	=28	=28
1C	1G	0c	4f]
.	.	.	4e
.	.	.	4e
.	.	.	8dL
.	.	.	8eJ
2.FF	2.A	.	[1f
4GG	4B-y	.	.
=29	=29	=29	=29
2AA	2c	2r	1f]
2BB-y	2.F	2d	.
1FF	.	2c	1f
.	4G	.	.
.	2A	[2f	.
=30	=30	=30	=30
0r	2B-y	2f]	1g
.	2c	2e	.
.	1F	2f	1a
.	.	[2d	.
=31	=31	=31	=31
0r	0r	2d]	2r
.	.	2c	1a
.	.	2d	.
.	.	2e	2g
=32	=32	=32	=32
0r	0r	2c	2a
.	.	4B-y	1b-y
.	.	4c	.
.	.	4d	.
.	.	4e	.
.	.	[2f	2a
=33	=33	=33	=33
1r	2r	2f]	1g
.	2c	2e	.
1F	2d	2.f	1f
.	[2c	.	.
.	.	4e	.
=34	=34	=34	=34
1G	2c]	1d	1r
.	2B-y	.	.
1A	2.c	2r	2r
.	.	2c	2f
.	8B-yL	.	.
.	8AJ	.	.
=35	=35	=35	=35
2r	2G	2d	2g
1D	2F	1f	2.a
.	1A	.	.
.	.	.	4b-y
2C	.	2e	2cc
=36	=36	=36	=36
2D	2A	2d	2.f
1F	2.A	1c	.
.	.	.	4g
.	.	.	2a
.	4B-y	.	.
2E	2c	2G	[2g
=37	=37	=37	=37
1D	1F	2A	4g]
.	.	.	4f
.	.	2B-y	1f
1C	1G	1c	.
.	.	.	2e
=38	=38	=38	=38
2r	0F	1r	[0f
2.F	.	.	.
.	.	[1A	.
4E	.	.	.
[2D	.	.	.
=39	=39	=39	=39
2D]	1r	2A]	0f]
4C	.	2B-y	.
4BB-y	.	.	.
2AA	[1F	2c	.
[2BB-y	.	[2d	.
=40	=40	=40	=40
2BB-]	2F]	2d]	1r
4AA	2G	4c	.
4GG	.	4B-y	.
2FF	2A	2c	[1f
[2D	[2B-y	[2F	.
=41	=41	=41	=41
2D]	2B-]	2F]	2f]
4C	4A	4E	2g
4BB-y	4G	4D	.
2AA	2F	2C	2a
[2GG	2G	2E-X	[2b-y
=42	=42	=42	=42
2GG]	1A	1D	4b-]
.	.	.	4a
2FF	.	.	1a
1GG	1B-y	1d	.
.	.	.	2g
=43	=43	=43	=43
0D	0A	2r	[0a
.	.	2.f	.
.	.	4e	.
.	.	[2d	.
=44	=44	=44	=44
1.F	0r	2d]	0a]
.	.	4c	.
.	.	4B-y	.
.	.	2c	.
4E	.	[2d	.
4D	.	.	.
=45	=45	=45	=45
2E	2r	4d]	0r
.	.	4c	.
2F	1A	1c	.
1D	.	.	.
.	4G	2Bni	.
.	4F	.	.
=46	=46	=46	=46
1C	1G	0c	2r
.	.	.	2.cc
[1F	2.A	.	.
.	.	.	4b-y
.	.	.	[2a
.	4B-y	.	.
=47	=47	=47	=47
2F]	0c	1F	2a]
4E	.	.	4g
4D	.	.	4f
2E	.	2r	2g
2F	.	2F	[2a
=48	=48	=48	=48
1D	1F	1A	4a]
.	.	.	4g
.	.	.	1f
1C	1G	1c	.
.	.	.	2e
=49	=49	=49	=49
0FF	2F	2A	1f
.	1c	1A	.
.	.	.	1f
.	4B-y	2F	.
.	4A	.	.
=50	=50	=50	=50
0r	2B-y	2G	2d
.	2c	1C	1e
.	1A	.	.
.	.	[2c	4d
.	.	.	4c
=51	=51	=51	=51
0r	1G	2c]	1d
.	.	2B-y	.
.	1C	2c	1c
.	.	2G	.
=52	=52	=52	=52
0r	0r	2A	2.c
.	.	1c	.
.	.	.	4d
.	.	.	4e
.	.	.	4f
.	.	2B-y	[2g
=53	=53	=53	=53
0r	0r	2A	4g]
.	.	.	4f
.	.	4G	1f
.	.	4F	.
.	.	1G	.
.	.	.	2e
=54	=54	=54	=54
1r	2r	1F	0f
.	1F	.	.
1BB-y	.	1r	.
.	2D	.	.
=55	=55	=55	=55
2GG	2.E	2r	0r
1AA	.	1c	.
.	8DL	.	.
.	8CJ	.	.
.	2C	.	.
4GG	[2F	2A	.
4FF	.	.	.
=56	=56	=56	=56
1GG	2F]	1B-y	0r
.	2E	.	.
1FF	2F	2A	.
.	[2A	[2c	.
=57	=57	=57	=57
2.C	4A]	2c]	0r
.	4G	.	.
.	1c	4B-y	.
4D	.	4A	.
4E	.	2G	.
4F	.	.	.
[2G	2B-y	2E	.
=58	=58	=58	=58
4G]	1A	1F	1f
4F	.	.	.
1F	.	.	.
.	1G	2C	1g
2E	.	[2c	.
=59	=59	=59	=59
2.F	0F	2c]	2.a
.	.	2A	.
4E	.	.	4g
2D	.	1d	2a
2BB-y	.	.	[2b-y
=60	=60	=60	=60
1.F	0r	2c	2b-]
.	.	2.d	4a
.	.	.	4g
.	.	.	2a
.	.	4c	.
2E	.	[2c	[2g
=61	=61	=61	=61
1D	1F	2c]	4g]
.	.	.	4f
.	.	2Bni	1f
1C	1G	1c	.
.	.	.	2e
=62	=62	=62	=62
2r	2.A	1F	0f
1F	.	.	.
.	4G	.	.
.	2A	2r	.
2D	[2B-y	[2d	.
=63	=63	=63	=63
1G	2B-]	2d]	0r
.	4A	4c	.
.	4G	4B-y	.
2F	2A	2d	.
[2E-X	[2G	[2c	.
=64	=64	=64	=64
2E-]	4G]	4c]	1r
.	4F	4B-y	.
2D	1F	1B-y	.
1C	.	.	1c
.	2E	2A	.
=65	=65	=65	=65
1BB-y	1F	1B-y	1d
2r	1c	1A	2.e
[2C	.	.	.
.	.	.	4d
=66	=66	=66	=66
2C]	1c	2G	2e
2AA	.	1A	1f
1D	2.A	.	.
.	.	4G	4e
.	4B-y	4F	4d
=67	=67	=67	=67
2C	2c	2G	2e
1BB-y	2F	1D	2.d
.	2G	.	.
.	.	.	4c
2AA	[2A	2E	[2c
=68	=68	=68	=68
1D	4A]	1F	2c]
.	4G	.	.
.	1F	.	2B-y
2.C	.	1G	2c
.	2E	.	[2g
4BB-y	.	.	.
=69	=69	=69	=69
2AA	1A	1C	4g]
.	.	.	4f
2FF	.	.	1f
1C	1G	2r	.
.	.	[2c	2e
=70	=70	=70	=70
[0FFl	[0Fl	2c]	[0fl
.	.	2A	.
.	.	1d	.
=	=	=	=
00FF]	00F]	00c	00f]
=||	=||	=||	=||
*M2/1	*M2/1	*M2/1	*M2/1
*met(C|)	*met(C|)	*met(C|)	*met(C|)
!!section: Secunda pars: Gaude virgo
!!!OMD: Secunda pars: Gaude virgo
1C	1r	0r	0r
2.D	2r	.	.
.	[2F	.	.
4C	.	.	.
=71	=71	=71	=71
4D	2F]	0r	0r
4E	.	.	.
2.F	2.A	.	.
8EL	4B-y	.	.
8DJ	.	.	.
4E	[2c	.	.
4F	.	.	.
=72	=72	=72	=72
1D	2c]	0r	0r
.	2Bni	.	.
2C	[1c	.	.
[2F	.	.	.
=73	=73	=73	=73
2F]	1c]	0r	0r
2E	.	.	.
2.D	2r	.	.
.	[2B-y	.	.
4C	.	.	.
=74	=74	=74	=74
4D	2B-]	0r	0r
4E	.	.	.
4F	2A	.	.
4D	.	.	.
2E	2G	.	.
[2F	2F	.	.
=75	=75	=75	=75
2F]	1G	1r	0r
2E	.	.	.
1F	1A	1c	.
=76	=76	=76	=76
1BB-y	0F	2.d	2r
.	.	.	1f
.	.	4c	.
1r	.	4d	.
.	.	4e	.
.	.	[2f	[2a
=77	=77	=77	=77
0r	0r	4f]	4a]
.	.	8eL	4b-y
.	.	8dJ	.
.	.	4e	1cc
.	.	4f	.
.	.	1d	.
.	.	.	2bni
=78	=78	=78	=78
0r	0r	2c	0cc
.	.	1f	.
.	.	2e	.
=79	=79	=79	=79
0r	0r	2.d	2r
.	.	.	1b-y
.	.	4c	.
.	.	4d	.
.	.	4e	.
.	.	4f	2a
.	.	4d	.
=80	=80	=80	=80
0r	1r	2e	2g
.	.	1f	2f
.	2r	.	1g
.	[2c	2e	.
=81	=81	=81	=81
1.F	4c]	1f	1a
.	4B-y	.	.
.	4A	.	.
.	4G	.	.
.	2A	1r	1f
4E	2B-y	.	.
4D	.	.	.
=82	=82	=82	=82
2E	2G	2r	0r
2F	1c	1A	.
1D	.	.	.
.	2Bni	4G	.
.	.	4F	.
=83	=83	=83	=83
1C	2c	2G	1r
.	2C	2E	.
[1BB-y	2.D	1F	2r
.	.	.	[2d
.	4E	.	.
=84	=84	=84	=84
2BB-]	2F	2D	2d]
4AA	2.G	1E	4c
4GG	.	.	4B-y
2AA	.	.	2c
.	4F	.	.
2BB-y	[2F	2D	2d
=85	=85	=85	=85
1GG	2F]	1G	1B-y
.	2E	.	.
2.FF	[1F	1C	2A
.	.	.	[2f
4GG	.	.	.
=86	=86	=86	=86
2AA	1F]	1r	2f]
2BB-y	.	.	4e
.	.	.	4d
2C	1r	2r	2e
2D	.	[2F	2f
=87	=87	=87	=87
2.BB-y	1r	2F]	1d
.	.	2G	.
4AA	.	.	.
1FF	2r	1A	1c
.	[2F	.	.
=88	=88	=88	=88
0r	2F]	2D	2.d
.	2G	2B-y	.
.	.	.	4e
.	2A	2c	2f
.	[2B-y	[2d	[2g
=89	=89	=89	=89
2r	4B-]	4d]	4g]
.	4A	4c	4f
1BB-y	2F	1d	1f
.	1G	.	.
2C	.	4c	2e
.	.	4B-y	.
=90	=90	=90	=90
2D	2F	2A	2f
2.F	1D	4F	1a
.	.	4G	.
.	.	4A	.
4E	.	4B-y	.
2C	2E	[2c	[2g
=91	=91	=91	=91
1D	1F	2c]	4g]
.	.	.	4f
.	.	2Bni	1f
1C	1G	1c	.
.	.	.	2e
=92	=92	=92	=92
1FF	2F	2.A	1f
.	1A	.	.
.	.	4B-y	.
1r	.	2c	1r
.	2D	[2d	.
=93	=93	=93	=93
1.F	2.A	2d]	2.f
.	.	4c	.
.	4B-y	4B-y	4g
.	2c	2A	2a
2BB-y	[2d	[2F	[2b-y
=94	=94	=94	=94
1F	2d]	2F]	4b-]
.	.	.	4a
.	2c	1f	1a
1G	1B-y	.	.
.	.	2e	2g
=95	=95	=95	=95
1F	2.c	1f	1a
.	4B-y	.	.
2.F	4A	2r	2.cc
.	4G	.	.
.	2A	[2f	.
4G	.	.	4b-y
=96	=96	=96	=96
2A	2F	4f]	2a
.	.	4e	.
1B-y	1G	1d	1g
2A	2A	2c	2f
=97	=97	=97	=97
2G	2B-y	1.d	2g
2F	2A	.	2.a
1G	1B-y	.	.
.	.	.	8gL
.	.	.	8fJ
.	.	4c	2g
.	.	4B-y	.
=98	=98	=98	=98
1F	1A	1c	0a
2r	2.F	2.A	.
[2F	.	.	.
.	4G	4B-y	.
=99	=99	=99	=99
4F]	2A	2c	0r
4E	.	.	.
1D	1B-y	2F	.
.	.	2G	.
2C	[2A	2A	.
=100	=100	=100	=100
2D	2A]	1B-y	1r
2E	2G	.	.
1F	1A	[1A	2.c
.	.	.	4d
=101	=101	=101	=101
2r	2.c	1A]	2e
1F	.	.	1f
.	4B-y	.	.
.	2A	1c	.
2C	[2G	.	[2e
=102	=102	=102	=102
1D	2G]	2.A	2e]
.	2F	.	2d
.	.	4B-y	.
2C	2G	2c	2e
2AA	[2A	2C	[2f
=103	=103	=103	=103
1BB-y	4A]	1D	2f]
.	8GL	.	.
.	8FJ	.	.
.	2G	.	1d
1AA	[1A	1E	.
.	.	.	2c
=104	=104	=104	=104
2D	0A_	2F	2d
2C	.	2E	2.e
1D	.	1F	.
.	.	.	8dL
.	.	.	8cJ
.	.	.	2d
=105	=105	=105	=105
2AA	1A]	2E	0e
1A	.	1c	.
.	1r	.	.
2G	.	2B-y	.
=106	=106	=106	=106
2A	1r	2c	1r
2.B-y	.	2.d	.
.	2r	.	2r
4A	.	4c	.
2F	[2A	[2f	[2c
=107	=107	=107	=107
1G	2A]	2f]	2c]
.	2G	2e	2B-y
2F	2A	2f	2c
2BB-y	[2B-y	[2F	[2d
=108	=108	=108	=108
1D	4B-]	4F]	4d]
.	4A	4G	4c
.	2F	4A	1f
.	.	4B-y	.
1C	1G	1c	.
.	.	.	2e
=109	=109	=109	=109
2r	[0F	1A	0f
2.D	.	.	.
.	.	2r	.
4C	.	.	.
2BB-y	.	2d	.
=110	=110	=110	=110
2AA	0F]	2c	1f
2.BB-y	.	2.d	.
.	.	.	1d
4C	.	4c	.
4D	.	[2B-y	.
4E	.	.	.
=111	=111	=111	=111
1F	0r	2B-]	1c
.	.	2A	.
1BB-y	.	2B-y	2.f
.	.	[2d	.
.	.	.	4g
=112	=112	=112	=112
0r	1r	2d]	2a
.	.	4c	1b-y
.	.	4B-y	.
.	1F	2c	.
.	.	4d	2a
.	.	4c	.
=113	=113	=113	=113
1r	1D	4d	1f
.	.	4e	.
.	.	1f	.
2r	1C	.	1g
2G	.	2e	.
=114	=114	=114	=114
2A	2.F	2.c	1f
1F	.	.	.
.	4G	4B-y	.
.	2A	2c	2r
2D	[2B-y	2d	2f
=115	=115	=115	=115
2E	2B-]	2G	2g
2F	2A	1c	2.a
1D	1F	.	.
.	.	.	4g
.	.	2B-y	[2f
=116	=116	=116	=116
2C	1G	2c	2f]
2C	.	2c	2e
2D	2.F	1A	2d
[2F	.	.	[2c
.	4E	.	.
=117	=117	=117	=117
2F]	2C	1G	2c]
2E	2.c	.	2g
2.F	.	2.c	2a
.	4B-y	.	.
.	[2A	.	[2cc
8EL	.	4d	.
8DJ	.	.	.
=118	=118	=118	=118
2C	2A]	2e	2cc]
2D	4G	1f	2b-y
.	4F	.	.
1C	2G	.	2.cc
.	2G	2e	.
.	.	.	4b-y
=119	=119	=119	=119
1.FF	2A	1c	4a
.	.	.	4g
.	1c	.	1a
.	.	1d	.
2GG	2B-y	.	4g
.	.	.	4f
=120	=120	=120	=120
2AA	2c	[0cl	2e
2FF	4B-y	.	1f
.	4A	.	.
1C	1G	.	.
.	.	.	2e
=121	=121	=121	=121
00FFl	00Fl	00c]	00fl
==	==	==	==
*-	*-	*-	*-
!!!system-decoration: [*]
!!!RDF**kern: i = editorial accidental
!!!RDF**kern: l = terminal long
!!!ENC: Benjamin Ory
!!!END: 2021/12/6
!!!EED: Benjamin Ory
!!!EEV: 2021/12/06
!!!YEC: Copyright 2021 Benjamin Ory, All Rights Reserved
!!!ONB: Translated from MusicXML on 2021/12/06
